2 Export/Icons/Brands/Pinterest.svg

<svg xmlns="http://www.w3.org/2000/svg" xmlns:xlink="http://www.w3.org/1999/xlink" width="24" height="24" viewBox="0 0 24 24">
  <defs>
    <path id="pinterest-a" d="M12.01275,3 C7.047,3 3.02175,7.02525 3.02175,11.99025 C3.02175,15.7995 5.39025,19.053 8.73525,20.36175 C8.6565,19.65 8.586,18.5595 8.766,17.7825 C8.93025,17.07975 9.8205,13.31475 9.8205,13.31475 C9.8205,13.31475 9.55125,12.77475 9.55125,11.979 C9.55125,10.73175 10.2765,9.79575 11.17725,9.79575 C11.94525,9.79575 12.31575,10.3725 12.31575,11.06175 C12.31575,11.8335 11.826,12.987 11.57175,14.05575 C11.358,14.9505 12.02175,15.6795 12.903,15.6795 C14.499,15.6795 15.729,13.99575 15.729,11.56425 C15.729,9.4185 14.18175,7.9125 11.973,7.9125 C9.4155,7.9125 7.91625,9.834 7.91625,11.81175 C7.91625,12.5865 8.21175,13.419 8.583,13.8675 C8.65725,13.9575 8.667,14.03625 8.64675,14.12625 C8.57925,14.4075 8.427,15.0255 8.39625,15.1485 C8.3565,15.31725 8.26725,15.35175 8.0955,15.27225 C6.97425,14.75475 6.27075,13.11375 6.27075,11.78775 C6.27075,8.95575 8.33175,6.34875 12.21075,6.34875 C15.32925,6.34875 17.75475,8.574 17.75475,11.541 C17.75475,14.64225 15.7995,17.1375 13.08,17.1375 C12.1695,17.1375 11.3145,16.66575 11.0115,16.10325 L10.44975,18.23925 C10.248,19.023 9.69675,20.00325 9.32625,20.59875 C10.1685,20.8575 11.05575,21 11.98875,21 C16.944,21 20.9775,16.97625 20.9775,12.00975 C20.9775,7.0425 16.944,3.0195 11.98875,3.0195 L12.01275,3 Z"/>
  </defs>
  <g fill="none" fill-rule="evenodd">
    <polygon points="0 0 24 0 24 24 0 24"/>
    <mask id="pinterest-b" fill="#fff">
      <use xlink:href="#pinterest-a"/>
    </mask>
    <use fill="#000" xlink:href="#pinterest-a"/>
    <g fill="#000" mask="url(#pinterest-b)">
      <rect width="24" height="24"/>
    </g>
  </g>
</svg>

<svg xmlns="http://www.w3.org/2000/svg" xmlns:xlink="http://www.w3.org/1999/xlink" width="24" height="24" viewBox="0 0 24 24">
  <defs>
    <path id="pinterest-a" d="M12.013 3a8.99 8.99 0 0 0-3.278 17.362c-.079-.712-.149-1.802.031-2.58.164-.702 1.054-4.467 1.054-4.467s-.269-.54-.269-1.336c0-1.247.726-2.183 1.626-2.183.768 0 1.139.577 1.139 1.266 0 .772-.49 1.925-.744 2.994-.214.895.45 1.624 1.331 1.624 1.596 0 2.826-1.684 2.826-4.116 0-2.146-1.547-3.652-3.756-3.652-2.558 0-4.057 1.922-4.057 3.9 0 .774.296 1.607.667 2.056.074.09.084.168.064.258l-.25 1.023c-.04.168-.13.203-.302.123-1.12-.517-1.824-2.158-1.824-3.484 0-2.832 2.06-5.44 5.94-5.44 3.118 0 5.544 2.226 5.544 5.193 0 3.101-1.955 5.596-4.675 5.596-.91 0-1.765-.471-2.069-1.034l-.561 2.136c-.202.784-.753 1.764-1.124 2.36A9.02 9.02 0 0 0 11.99 21c4.955 0 8.988-4.024 8.988-8.99 0-4.967-4.033-8.99-8.988-8.99l.024-.02z"/>
  </defs>
  <g fill="none" fill-rule="evenodd">
    <polygon points="0 0 24 0 24 24 0 24"/>
    <mask id="pinterest-b" fill="#fff">
      <use xlink:href="#pinterest-a"/>
    </mask>
    <use fill="#000" xlink:href="#pinterest-a"/>
    <g fill="#000" mask="url(#pinterest-b)">
      <rect width="24" height="24"/>
    </g>
  </g>
</svg>
